X:1916
T:Polska efter Snickar-Erik
R:Polska
S:Efter Snickar-Erik Olsson
O:Hälsingland
Z:ABC-transkribering av Erik Ronström okt 2010
M:3/4
L:1/16
K:D
|:dfaf d2A2 GFED|e4 B2Bd c4|ABcd efge f2d2|g3b f2fa e2g2|
[1 fedc d8:|2 fedc d6 B2|:A3G FDFA d4|B3A GFEF G4|
E3G B2ef g2e2|A2ce g2eg f2d2|Adfd Adfd Adfd|Acec Acec Acec|
f3d Adfd Adfd|Acec Acec A2g2|fedc d2eg f2d2|g3b f2fa e2g2|
[1 fedc d6 B2:|2 fedc d8|]
(:musicend:)
(:music:)
